packages/katcn/src/icons/svg/rotate.svg

<svg width="24" height="25" viewBox="0 0 24 25" fill="none" xmlns="http://www.w3.org/2000/svg">
<path d="M19.9 9.31201C20.5 9.41201 21.2 9.21201 21.6 8.71201C22 8.21201 22.1 7.61201 21.9 6.91201L20.8 3.51201C20.6 3.01201 20.1 2.71201 19.5 2.91201C19 3.11201 18.7 3.61201 18.9 4.21201L19.9 7.31201L17 6.81201L18 5.61201C18.2 5.41201 18.3 5.11201 18.2 4.81201C18.1 4.51201 18.1 4.31201 17.8 4.21201C16.1 3.01201 14.1 2.31201 12 2.31201C6.5 2.31201 2 6.81201 2 12.312C2 17.812 6.5 22.312 12 22.312C12.6 22.312 13.2 22.212 13.8 22.112C14.3 22.012 14.7 21.512 14.6 20.912C14.5 20.412 14 20.012 13.4 20.112C13 20.312 12.5 20.312 12 20.312C7.6 20.312 4 16.712 4 12.312C4 7.91201 7.6 4.31201 12 4.31201C13.3 4.31201 14.6 4.61201 15.7 5.21201L15.2 5.71201C14.8 6.21201 14.6 6.91201 14.9 7.51201C15.2 8.11201 15.7 8.61201 16.3 8.71201L19.9 9.31201Z" fill="black"/>
<path d="M21 11.312C20.4 11.312 20 11.712 20 12.312C20 12.812 20 13.312 19.9 13.812C19.8 14.312 20.2 14.912 20.7 15.012C20.8 15.012 20.8 15.012 20.9 15.012C21.4 15.012 21.8 14.712 21.9 14.212C22 13.612 22.1 13.012 22.1 12.412C22 11.712 21.6 11.312 21 11.312Z" fill="black"/>
<path d="M18.5 16.912C17.9 17.812 17 18.612 16 19.212C15.5 19.512 15.4 20.112 15.7 20.612C15.9 20.912 16.2 21.112 16.6 21.112C16.8 21.112 17 21.112 17.1 21.012C18.3 20.312 19.4 19.312 20.2 18.212C20.5 17.712 20.4 17.112 20 16.812C19.5 16.312 18.9 16.412 18.5 16.912Z" fill="black"/>
<path d="M12 8.81201C10.1 8.81201 8.5 10.312 8.5 12.312C8.5 14.212 10 15.812 12 15.812C13.9 15.812 15.5 14.312 15.5 12.312C15.5 10.412 13.9 8.81201 12 8.81201ZM12 13.812C11.2 13.812 10.5 13.112 10.5 12.312C10.5 11.512 11.2 10.812 12 10.812C12.8 10.812 13.5 11.512 13.5 12.312C13.5 13.112 12.8 13.812 12 13.812Z" fill="black"/>
</svg>

<svg xmlns="http://www.w3.org/2000/svg" fill="none" viewBox="0 0 24 25"><path fill="#000" d="M19.9 9.312c.6.1 1.3-.1 1.7-.6q.6-.75.3-1.8l-1.1-3.4c-.2-.5-.7-.8-1.3-.6-.5.2-.8.7-.6 1.3l1 3.1-2.9-.5 1-1.2c.2-.2.3-.5.2-.8s-.1-.5-.4-.6c-1.7-1.2-3.7-1.9-5.8-1.9-5.5 0-10 4.5-10 10s4.5 10 10 10c.6 0 1.2-.1 1.8-.2.5-.1.9-.6.8-1.2-.1-.5-.6-.9-1.2-.8-.4.2-.9.2-1.4.2-4.4 0-8-3.6-8-8s3.6-8 8-8c1.3 0 2.6.3 3.7.9l-.5.5c-.4.5-.6 1.2-.3 1.8s.8 1.1 1.4 1.2z"/><path fill="#000" d="M21 11.312c-.6 0-1 .4-1 1 0 .5 0 1-.1 1.5s.3 1.1.8 1.2h.2c.5 0 .9-.3 1-.8.1-.6.2-1.2.2-1.8-.1-.7-.5-1.1-1.1-1.1m-2.5 5.6c-.6.9-1.5 1.7-2.5 2.3-.5.3-.6.9-.3 1.4.2.3.5.5.9.5.2 0 .4 0 .5-.1 1.2-.7 2.3-1.7 3.1-2.8.3-.5.2-1.1-.2-1.4-.5-.5-1.1-.4-1.5.1m-6.5-8.1c-1.9 0-3.5 1.5-3.5 3.5 0 1.9 1.5 3.5 3.5 3.5 1.9 0 3.5-1.5 3.5-3.5 0-1.9-1.6-3.5-3.5-3.5m0 5c-.8 0-1.5-.7-1.5-1.5s.7-1.5 1.5-1.5 1.5.7 1.5 1.5-.7 1.5-1.5 1.5"/></svg>
